trunk/WorldWind/resources/milstd2525/icons/ems/enoaam---------.svg

<?xml version="1.0" encoding="UTF-8" standalone="no"?>
<!--
Copyright (C) 2012 United States Government as represented by the Administrator of the
National Aeronautics and Space Administration.
All Rights Reserved.
-->

<!--
MIL-STD-2525 tactical symbol icon image. During icon composition this image is multiplied by the desired frame color 
(e.g. black), then drawn on top of the frame and fill.
-->

<svg
   xmlns:dc="http://purl.org/dc/elements/1.1/"
   xmlns:cc="http://creativecommons.org/ns#"
   xmlns:rdf="http://www.w3.org/1999/02/22-rdf-syntax-ns#"
   xmlns:svg="http://www.w3.org/2000/svg"
   xmlns="http://www.w3.org/2000/svg"
   xmlns:sodipodi="http://sodipodi.sourceforge.net/DTD/sodipodi-0.dtd"
   xmlns:inkscape="http://www.inkscape.org/namespaces/inkscape"
   height="400px"
   viewBox="0 0 400 400"
   width="400px"
   id="svg2"
   version="1.1"
   inkscape:version="0.48.2 r9819"
   sodipodi:docname="enoaam---------.svg">
  <metadata
     id="metadata18">
    <rdf:RDF>
      <cc:Work
         rdf:about="">
        <dc:format>image/svg+xml</dc:format>
        <dc:type
           rdf:resource="http://purl.org/dc/dcmitype/StillImage" />
      </cc:Work>
    </rdf:RDF>
  </metadata>
  <defs
     id="defs16" />
  <sodipodi:namedview
     pagecolor="#ffffff"
     bordercolor="#666666"
     borderopacity="1"
     objecttolerance="10"
     gridtolerance="10"
     guidetolerance="10"
     inkscape:pageopacity="0"
     inkscape:pageshadow="2"
     inkscape:window-width="640"
     inkscape:window-height="480"
     id="namedview14"
     showgrid="false"
     inkscape:zoom="0.59"
     inkscape:cx="200"
     inkscape:cy="200"
     inkscape:window-x="267"
     inkscape:window-y="113"
     inkscape:window-maximized="0"
     inkscape:current-layer="svg2" />
  <g
     transform="matrix(110,0,0,110,60.99995,39.99996)"
     id="g4"
     style="stroke:#000000;stroke-width:0.05454545;stroke-miterlimit:4;stroke-opacity:1;stroke-dasharray:0.10909091, 0.05454545;stroke-dashoffset:0">
    <path
       inkscape:connector-curvature="0"
       d="M 1.18879,1.00789 1.26721,0.954567 c 0.00957,0.008319 0.06682,0.043532 0.06682,0.052503 0,0.02544 -0.01846,0.04366 -0.02386,0.06682 l 0.00371,-0.00371 0.01909,0.01909 -0.00361,0.0043 -0.03351,0.00419 0,0.01909 C 1.34942,1.11239 1.4485,1.04526 1.50587,1.04526 l 0.02386,0 c 0.03464,0 0.1014,0.03877 0.12884,0.05253 0.02913,0.0146 0.10891,0.03116 0.10982,0.07156 l -0.39617,0 c -0.03472,0 -0.04976,-0.00811 -0.07637,-0.01431 l 0,0.27206 C 1.32883,1.42435 1.36959,1.41151 1.39802,1.4004 1.43481,1.38602 1.46768,1.38628 1.46768,1.33641 1.46768,1.32401 1.45064,1.31255 1.44381,1.31255 1.40792,1.31255 1.3816,1.3439 1.34688,1.30447 1.31968,1.27359 1.34709,1.23141 1.38176,1.23141 l 0.04774,0 c 0.06674,0 0.13364,0.02019 0.13364,0.08591 l 0,0.00477 c 0,0.08171 -0.12056,0.13842 -0.20047,0.13842 l 0,0.00955 c 0.03848,0.00896 0.09546,0.04654 0.09546,0.09069 0,0.09723 -0.10796,0.09859 -0.13364,0.13364 C 1.336,1.69708 1.43687,1.74992 1.45061,1.75919 1.48555,1.78276 1.52496,1.82437 1.52496,1.88054 1.50074,1.87407 1.50308,1.84348 1.48752,1.82729 1.47594,1.81524 1.4464,1.79917 1.42798,1.79137 1.38245,1.7721 1.33854,1.75306 1.29585,1.73257 l 0,0.15274 -0.0716,0 0,-0.14796 C 1.19829,1.7434 1.13229,1.77759 1.10496,1.78988 1.06935,1.8059 1.02281,1.83485 1.01901,1.88054 1.01185,1.87883 1.00469,1.87949 1.00469,1.871 1.00469,1.75209 1.19082,1.72068 1.20039,1.68485 1.15346,1.67391 1.06674,1.62597 1.06674,1.57029 1.06674,1.5154 1.11659,1.48068 1.1622,1.47006 l 0,-0.00955 c -0.07311,0 -0.195693,-0.0559 -0.195693,-0.1241 l 0,-0.03341 c 0,-0.05333 0.079883,-0.07159 0.138423,-0.07159 l 0.03818,0 c 0.02429,0 0.04773,0.02062 0.04773,0.04295 0,0.07512 -0.07866,0.03819 -0.10023,0.03819 -0.01997,0 -0.02668,0.01591 -0.0318,0.0284 L 1.06197,1.36982 C 1.10419,1.39809 1.16798,1.41399 1.22425,1.4271 l 5e-4,-0.26921 -0.08164,0.01146 -0.377072,0 c -0.014429,0 -0.013197,-0.00561 -0.014319,-0.01909 0.052756,-0.01229 0.190811,-0.105 0.238654,-0.105 l 0.023867,0 c 0.04764,0 0.1571,0.05926 0.21001,0.07159 l 0,-0.01909 -0.01432,0 c -0.00781,0 -0.01432,-0.00286 -0.01432,-0.00955 0,-0.01493 0.00857,-0.01352 0.01781,-0.01858 z m -0.15546,-0.291976 0.45822,0 0,0.167059 -0.45822,0 z m -0.143194,-0.014319 0,0.181378 -0.071595,0 c -0.147843,0 -0.155701,0.108165 -0.209886,0.186277 -0.04394,0.06335 -0.18628,0.06561 -0.18628,0.21466 l 0,0.68255 1.680125,0 0,-0.64436 C 2.1025,1.2511 2.08549,1.20161 2.05127,1.1633 2.01704,1.12498 1.96141,1.11662 1.92468,1.07988 1.85252,1.00772 1.87435,0.882974 1.69678,0.882974 l -0.06682,0 0,-0.176606 c 0,-0.096299 -0.0763,-0.147965 -0.1766,-0.147965 l -0.38185,0 c -0.09684,0 -0.181376,0.056145 -0.181376,0.143193 l 4e-6,0 z"
       style="fill:#000000;stroke:#000000;stroke-width:0.05454545;stroke-miterlimit:4;stroke-opacity:1;stroke-dasharray:0.10909091, 0.05454545;stroke-dashoffset:0"
       id="path6" />
  </g>
  <rect
     height="106"
     style="fill:#000000;stroke:#000000;stroke-width:1"
     width="118"
     x="141"
     y="144"
     id="rect8" />
  <g
     transform="matrix(50,0,0,50,138,136)"
     id="g10">
    <polygon
       points="1.45818,2.06367 1.45818,1.62378 1.84395,1.84453 2.07512,1.45213 1.69273,1.224 2.07748,1.0002 1.84487,0.604256 1.45919,0.826213 1.45818,0.379213 1.0022,0.379213 1.0022,0.824465 0.616413,0.60372 0.388524,0.999752 0.770457,1.22326 0.388244,1.44798 0.615421,1.84402 1.00096,1.62164 1.0022,2.06367 "
       style="fill:#ffffff"
       id="polygon12" />
  </g>
</svg>

<?xml version="1.0"?>
<!--
Copyright (C) 2012 United States Government as represented by the Administrator of the
National Aeronautics and Space Administration.
All Rights Reserved.
-->

<!DOCTYPE svg PUBLIC "-//W3C//DTD SVG 1.1//EN" "http://www.w3.org/Graphics/SVG/1.1/DTD/svg11.dtd" >
<!--
MIL-STD-2525 tactical symbol icon image. During icon composition this image is multiplied by the desired frame color 
(e.g. black), then drawn on top of the frame and fill.
-->
<svg xmlns:xlink="http://www.w3.org/1999/xlink" height="400px" viewBox="0 0 400 400" width="400px"><g transform="scale(110) translate(0.554545 0.363636)"><path d="M1.18879 1.00789 L1.26721 0.954567 C1.27678 0.962886 1.33403 0.998099 1.33403 1.00707     C1.33403 1.03251 1.31557 1.05073 1.31017 1.07389 L1.31388 1.07018 L1.33297     1.08927 L1.32936 1.09357 L1.29585 1.09776 L1.29585 1.11685 C1.34942 1.11239     1.4485 1.04526 1.50587 1.04526 L1.52973 1.04526 C1.56437 1.04526 1.63113     1.08403 1.65857 1.09779 C1.6877 1.11239 1.76748 1.12895 1.76839 1.16935 L1.37222     1.16935 C1.3375 1.16935 1.32246 1.16124 1.29585 1.15504 L1.29585 1.4271     C1.32883 1.42435 1.36959 1.41151 1.39802 1.4004 C1.43481 1.38602 1.46768 1.38628     1.46768 1.33641 C1.46768 1.32401 1.45064 1.31255 1.44381 1.31255 C1.40792     1.31255 1.3816 1.3439 1.34688 1.30447 C1.31968 1.27359 1.34709 1.23141     1.38176 1.23141 L1.4295 1.23141 C1.49624 1.23141 1.56314 1.2516 1.56314 1.31732     L1.56314 1.32209 C1.56314 1.4038 1.44258 1.46051 1.36267 1.46051 L1.36267     1.47006 C1.40115 1.47902 1.45813 1.5166 1.45813 1.56075 C1.45813 1.65798 1.35017     1.65934 1.32449 1.69439 C1.336 1.69708 1.43687 1.74992 1.45061 1.75919     C1.48555 1.78276 1.52496 1.82437 1.52496 1.88054 C1.50074 1.87407 1.50308     1.84348 1.48752 1.82729 C1.47594 1.81524 1.4464 1.79917 1.42798 1.79137 C1.38245     1.7721 1.33854 1.75306 1.29585 1.73257 L1.29585 1.88531 L1.22425 1.88531     L1.22425 1.73735 C1.19829 1.7434 1.13229 1.77759 1.10496 1.78988 C1.06935     1.8059 1.02281 1.83485 1.01901 1.88054 C1.01185 1.87883 1.00469 1.87949 1.00469     1.871 C1.00469 1.75209 1.19082 1.72068 1.20039 1.68485 C1.15346 1.67391     1.06674 1.62597 1.06674 1.57029 C1.06674 1.5154 1.11659 1.48068 1.1622 1.47006     L1.1622 1.46051 C1.08909 1.46051 0.966507 1.40461 0.966507 1.33641 L0.966507     1.303 C0.966507 1.24967 1.04639 1.23141 1.10493 1.23141 L1.14311 1.23141     C1.1674 1.23141 1.19084 1.25203 1.19084 1.27436 C1.19084 1.34948 1.11218 1.31255     1.09061 1.31255 C1.07064 1.31255 1.06393 1.32846 1.05881 1.34095 L1.06197     1.36982 C1.10419 1.39809 1.16798 1.41399 1.22425 1.4271 L1.22475 1.15789     L1.14311 1.16935 L0.766038 1.16935 C0.751609 1.16935 0.752841 1.16374 0.751719     1.15026 C0.804475 1.13797 0.94253 1.04526 0.990373 1.04526 L1.01424 1.04526     C1.06188 1.04526 1.17134 1.10452 1.22425 1.11685 L1.22425 1.09776 L1.20993     1.09776 C1.20212 1.09776 1.19561 1.0949 1.19561 1.08821 C1.19561 1.07328     1.20418 1.07469 1.21342 1.06963 zM1.03333 0.715914 L1.49155 0.715914 L1.49155     0.882973 L1.03333 0.882973 zM0.890136 0.701595 L0.890136 0.882973 L0.818541     0.882973 C0.670698 0.882973 0.66284 0.991138 0.608655 1.06925 C0.564715 1.1326     0.422375 1.13486 0.422375 1.28391 L0.422375 1.96646 L2.1025 1.96646 L2.1025     1.3221 C2.1025 1.2511 2.08549 1.20161 2.05127 1.1633 C2.01704 1.12498 1.96141     1.11662 1.92468 1.07988 C1.85252 1.00772 1.87435 0.882974 1.69678 0.882974     L1.62996 0.882974 L1.62996 0.706368 C1.62996 0.610069 1.55366 0.558403     1.45336 0.558403 L1.07151 0.558403 C0.97467 0.558403 0.890134 0.614548 0.890134     0.701596 L0.890138 0.701596 z" style="fill:rgb(0,0,0)"/></g><rect height="106" style="fill:rgb(0,0,0);stroke:rgb(0,0,0);stroke-width:1" transform="matrix(1 0 0 1 0 0)" width="118" x="141" y="144"/><g transform="scale(50) translate(0.76 0.78) translate(2 1.94)"><polygon points="0.770457,1.22326 0.388244,1.44798 0.615421,1.84402 1.00096,1.62164 1.0022,2.06367     1.45818,2.06367 1.45818,1.62378 1.84395,1.84453 2.07512,1.45213 1.69273,1.224     2.07748,1.0002 1.84487,0.604256 1.45919,0.826213 1.45818,0.379213 1.0022,0.379213     1.0022,0.824465 0.616413,0.60372 0.388524,0.999752" style="fill:rgb(255,255,255)"/></g></svg>
